X: 20151
T: Woe is me what Man I do
%R: air, waltz
B: James Oswald "The Caledonian Pocket Companion" v.2 p.15 #1
Z: 2019 John Chambers <jc:trillian.mit.edu>
M: 3/4
L: 1/8
K: G
|:\
d3 g dB | d2 B2 G2 | e3 g ec | e2 c2 A2 |\
dggbag | a2 d2 TB2 | c>d edcB | AGgf g2 :|
|:\
bgdbag | a2 d2 TB2 | geBgeB | c2 (c/d/)e A2 |\
afdafd | e^cec Aa | eafaea | Tf3 e d2 |
g>f gagf | g3 a g2 | a>g abag | a3 b a2 |\
b>a bc'ba | b>c' bagf | g>a (g/a/b) Ta>g | g3 a g2 :|
